X:1
T:Gang the Same Gate
T:Gang the Same Gate
T:Nathaniel Gow
C:Nathaniel Gow
L:1/8
M:4/4
K:Eb
V:1 treble 
V:1
 c |"Eb" B<G F>E E2{EF} G>E | E/F/G [B,F]>E"Ab" [CC]3 c |"Eb" B<G"Fm" [CF]>E"Eb"{EF} G"Cm" e>E | %4
"Bb7" [B,G]2 F>E"Eb" [G,E]3 c |"Eb" B<G"Fm" F>E E2{EF} G>E | E/F/G [B,F]>E"Ab" [CC]3 c | %7
"Eb" B<G"Fm" [CF]>E"Eb"{EF} G"Cm" e>E |"Bb7" [B,G]2 F>E"Eb" [G,E]3 || B | %10
"Eb" [Ge]>[Bf] [eg][eg] [eg]2 [Bf][Ge] | ga/g/ g/f/e/d/"Ab" c3 B/4c/4d/ |"Eb" e>f ge"Ab" c2 a>g | %13
"Bb" f>e d/e/f/g/"Eb" e3 B/4c/4d/ |"Cm" e2 GA/B/"Ab" c2"Bb7" FG/A/ |"Eb" B<G F>E"Ab" C2 c | %16
"Eb" B<G"Fm" [CF]>E"Eb"{EF} G"Cm" e>E |"Bb7" [B,G]2 F>E"Eb" [G,E]3 |] %18

